X: 144
T: Chwalcie Pana! Godno dać cześć Panu temu,
C: Mikołaj Gomółka
%%abc-version 2.0
%%abcx-abcm2ps-target-version 5.9.1 (29 Sep 2008)
%%abc-creator hum2abc beta
%%abcx-conversion-date 2021/10/04 07:59:10
%%abc-edited-by Anna Matuszewska
%%abcx-initial-encoding-date 2020-02-25
%%humdrum-veritas 4190039074
%%humdrum-veritas-data 611765406
%%linebreak <none>
%%barnumbers 0
L: 1/4
M: C|
N: Derived from pl-wn--sd-xvi-qu-273--147_gomolka-mikolaj--chwalcie-pana-godno-dac-czesc-panu-temu.krn
%%staves [1 2 3 4]
V: 1
V: 2 clef=alto
V: 3 clef=alto
V: 4 clef=bass
K: F
[V:1] A4A2A2 [I:setbarnb 3][|] 
[V:2] F4E2E2 [|] 
[V:3] D4C2C2 [|] 
[V:4] D,4A,2A,,2 [|] 
[V:1] A2B4A2 [|] 
[V:2] F2G2G,2A,3 [|] 
[V:3] D2D2>E2F2 [|] 
[V:4] D,2G,2G,2F,3 [|] 
[V:1] A2A2G2F4 [|] 
[V:2] B,C2B,3C [|] 
[V:3] F2E2D3C [|] 
[V:4] G,A,2B,3A, [|] 
[V:1] E2F2G2 [|] 
[V:2] D2CB,CDE2 [|] 
[V:3] B,A,B,2A,2C2 [|] 
[V:4] G,F,G,2F,2C,2 [|] 
[V:1] A2>A2A2A2 [|] 
[V:2] F2F2E2E2 [|] 
[V:3] C2D2D2C2 [|] 
[V:4] F,2D,2A,2A,2 [|] 
[V:1] A2A2G2F2 [|] 
[V:2] D2C2D3C [|] 
[V:3] D2>C2B,3C [|] 
[V:4] D,2A,,2B,,3A,, [|] 
[V:1] G4A4 [|] 
[V:2] B,A,B,2C3D [|] 
[V:3] D2CB,A,G,A,B, [|] 
[V:4] G,,F,,G,,2F,,4 [|] 
[V:1] G8 [|] 
[V:2] E8 [|] 
[V:3] C8 [|] 
[V:4] C,8 [|] 


